www/assets/icons/support.svg

<svg xmlns="http://www.w3.org/2000/svg" width="24" height="24" viewBox="0 0 24 24" fill='currentColor'><path d="M12 2C6.48 2 2 6.48 2 12s4.48 10 10 10 10-4.48 10-10S17.52 2 12 2m7.46 7.12-2.78 1.15a4.98 4.98 0 0 0-2.95-2.94l1.15-2.78c2.1.8 3.77 2.47 4.58 4.57M12 15c-1.66 0-3-1.34-3-3s1.34-3 3-3 3 1.34 3 3-1.34 3-3 3M9.13 4.54l1.17 2.78a5 5 0 0 0-2.98 2.97L4.54 9.13a7.98 7.98 0 0 1 4.59-4.59M4.54 14.87l2.78-1.15a4.97 4.97 0 0 0 2.97 2.96l-1.17 2.78a8 8 0 0 1-4.58-4.59m10.34 4.59-1.15-2.78a4.98 4.98 0 0 0 2.95-2.97l2.78 1.17a8 8 0 0 1-4.58 4.58"/></svg>

<svg width="24" height="24" viewBox="0 0 24 24" xmlns="http://www.w3.org/2000/svg" fill='currentColor'><path d="M12 2C6.48 2 2 6.48 2 12C2 17.52 6.48 22 12 22C17.52 22 22 17.52 22 12C22 6.48 17.52 2 12 2ZM19.46 9.12L16.68 10.27C16.17 8.91 15.1 7.83 13.73 7.33L14.88 4.55C16.98 5.35 18.65 7.02 19.46 9.12ZM12 15C10.34 15 9 13.66 9 12C9 10.34 10.34 9 12 9C13.66 9 15 10.34 15 12C15 13.66 13.66 15 12 15ZM9.13 4.54L10.3 7.32C8.92 7.82 7.83 8.91 7.32 10.29L4.54 9.13C5.35 7.02 7.02 5.35 9.13 4.54ZM4.54 14.87L7.32 13.72C7.83 15.1 8.91 16.18 10.29 16.68L9.12 19.46C7.02 18.65 5.35 16.98 4.54 14.87ZM14.88 19.46L13.73 16.68C15.1 16.17 16.18 15.09 16.68 13.71L19.46 14.88C18.65 16.98 16.98 18.65 14.88 19.46Z"/></svg>
